; Generated by Polyslice
; Version: Unknown
; Timestamp: 2026-02-19T09:35:57.013Z
; Repository: https://github.com/jgphilpott/polyslice
; Flavor: Marlin
; Printer: ElegooNeptune4
; Filament: Generic PLA (pla)
; Nozzle Temp: 200°C
; Bed Temp: 60°C
; Layer Height: 0.2mm
; Infill Density: 10%
; Infill Pattern: grid
; Wall Count: 2
; Support: No
; Adhesion: None
; Perimeter Speed: 30mm/s
; Infill Speed: 60mm/s
; Travel Speed: 120mm/s
; Total Layers: 250
; Filament Length: 9832.12mm
; Material Volume: 23649.03mm³
; Material Weight: 29.32g
; Estimated Print Time: 01:58:15

M117 Starting pre-print sequence...
M104 S200; Start Heating Nozzle
M140 S60; Start Heating Bed
G28; Home All Axes
G0 Z10 F3000; Raise Z to 10mm (protect bed while heating)
M109 S200; Wait for Nozzle Temperature
M190 R60; Wait for Bed Temperature
M82; Set 'absolute' Extrusion Mode
G17; Set Workspace Plane
G21; Set Units
M117 Printing test strip...
G92 E0; Reset Extruder
G0 Z2 F3000; Move Z Up
G0 X10 Y10 Z0.25 F5000; Move to Start Position
G1 X215 Y10 Z0.25 E15 F1500; Draw First Line
G0 X215 Y10.4 Z0.25 F5000; Move to Side
G1 X10 Y10.4 Z0.25 E30 F1500; Draw Second Line
G92 E0; Reset Extruder
G0 Z2 F3000; Lift Nozzle
G92 E0; Reset Extruder Position
G1 E-5 F2700; Retract Filament
M117 Pre-print sequence complete.

M106 S255; Start Cooling Fan
M117 Printing 250 layers...
M117 LAYER: 1 of 250
G0 X91.814 Y87.7 Z0.1 F7200; Moving to wall outer
; TYPE: WALL-OUTER
G1 X133.186 Y87.7 Z0.1 E1.37602 F1800
G1 X133.186 Y137.3 Z0.1 E3.02572 F1800
G1 X91.814 Y137.3 Z0.1 E4.40175 F1800
G1 X91.814 Y87.7 Z0.1 E6.05145 F1800
G0 X92.214 Y88.1 Z0.1 F7200; Moving to wall inner
; TYPE: WALL-INNER
G1 X132.786 Y88.1 Z0.1 E7.40086 F1800
G1 X132.786 Y136.9 Z0.1 E9.02396 F1800
G1 X92.214 Y136.9 Z0.1 E10.37337 F1800
G1 X92.214 Y88.1 Z0.1 E11.99647 F1800
; TYPE: SKIN
G0 X92.614 Y88.5 Z0.1 F7200; Moving to skin wall
G1 X132.386 Y88.5 Z0.1 E13.31927 F1800
G1 X132.386 Y136.5 Z0.1 E14.91576 F1800
G1 X92.614 Y136.5 Z0.1 E16.23857 F1800
G1 X92.614 Y88.5 Z0.1 E17.83505 F1800
G0 X92.892 Y88.65 Z0.1 F7200; Moving to skin infill line
G1 X132.236 Y127.994 Z0.1 E19.68568 F3600
G0 X132.236 Y127.428 Z0.1 F7200; Moving to skin infill line
G1 X93.457 Y88.65 Z0.1 E21.5097 F3600
G0 X94.023 Y88.65 Z0.1 F7200; Moving to skin infill line
G1 X132.236 Y126.863 Z0.1 E23.30711 F3600
G0 X132.236 Y126.297 Z0.1 F7200; Moving to skin infill line
G1 X94.589 Y88.65 Z0.1 E25.07791 F3600
G0 X95.154 Y88.65 Z0.1 F7200; Moving to skin infill line
G1 X132.236 Y125.731 Z0.1 E26.8221 F3600
G0 X132.236 Y125.166 Z0.1 F7200; Moving to skin infill line
G1 X95.72 Y88.65 Z0.1 E28.53969 F3600
G0 X96.286 Y88.65 Z0.1 F7200; Moving to skin infill line
G1 X132.236 Y124.6 Z0.1 E30.23067 F3600
G0 X132.236 Y124.034 Z0.1 F7200; Moving to skin infill line
G1 X96.851 Y88.65 Z0.1 E31.89504 F3600
G0 X97.417 Y88.65 Z0.1 F7200; Moving to skin infill line
G1 X132.236 Y123.469 Z0.1 E33.5328 F3600
G0 X132.236 Y122.903 Z0.1 F7200; Moving to skin infill line
G1 X97.983 Y88.65 Z0.1 E35.14395 F3600
G0 X98.548 Y88.65 Z0.1 F7200; Moving to skin infill line
G1 X132.236 Y122.337 Z0.1 E36.7285 F3600
G0 X132.236 Y121.772 Z0.1 F7200; Moving to skin infill line
G1 X99.114 Y88.65 Z0.1 E38.28644 F3600
G0 X99.68 Y88.65 Z0.1 F7200; Moving to skin infill line
G1 X132.236 Y121.206 Z0.1 E39.81777 F3600
G0 X132.236 Y120.64 Z0.1 F7200; Moving to skin infill line
G1 X100.246 Y88.65 Z0.1 E41.32249 F3600
G0 X100.811 Y88.65 Z0.1 F7200; Moving to skin infill line
G1 X132.236 Y120.075 Z0.1 E42.8006 F3600
G0 X132.236 Y119.509 Z0.1 F7200; Moving to skin infill line
G1 X101.377 Y88.65 Z0.1 E44.25211 F3600
G0 X101.943 Y88.65 Z0.1 F7200; Moving to skin infill line
G1 X132.236 Y118.943 Z0.1 E45.677 F3600
G0 X132.236 Y118.377 Z0.1 F7200; Moving to skin infill line
G1 X102.508 Y88.65 Z0.1 E47.07529 F3600
G0 X103.074 Y88.65 Z0.1 F7200; Moving to skin infill line
G1 X132.236 Y117.812 Z0.1 E48.44697 F3600
G0 X132.236 Y117.246 Z0.1 F7200; Moving to skin infill line
G1 X103.64 Y88.65 Z0.1 E49.79204 F3600
G0 X104.205 Y88.65 Z0.1 F7200; Moving to skin infill line
G1 X132.236 Y116.68 Z0.1 E51.11051 F3600
G0 X132.236 Y116.115 Z0.1 F7200; Moving to skin infill line
G1 X104.771 Y88.65 Z0.1 E52.40237 F3600
G0 X105.337 Y88.65 Z0.1 F7200; Moving to skin infill line
G1 X132.236 Y115.549 Z0.1 E53.66761 F3600
G0 X132.236 Y114.983 Z0.1 F7200; Moving to skin infill line
G1 X105.902 Y88.65 Z0.1 E54.90625 F3600
G0 X106.468 Y88.65 Z0.1 F7200; Moving to skin infill line
G1 X132.236 Y114.418 Z0.1 E56.11829 F3600
G0 X132.236 Y113.852 Z0.1 F7200; Moving to skin infill line
G1 X107.034 Y88.65 Z0.1 E57.30371 F3600
G0 X107.599 Y88.65 Z0.1 F7200; Moving to skin infill line
G1 X132.236 Y113.286 Z0.1 E58.46253 F3600
G0 X132.236 Y112.721 Z0.1 F7200; Moving to skin infill line
G1 X108.165 Y88.65 Z0.1 E59.59473 F3600
G0 X108.731 Y88.65 Z0.1 F7200; Moving to skin infill line
G1 X132.236 Y112.155 Z0.1 E60.70033 F3600
G0 X132.236 Y111.589 Z0.1 F7200; Moving to skin infill line
G1 X109.297 Y88.65 Z0.1 E61.77932 F3600
G0 X109.862 Y88.65 Z0.1 F7200; Moving to skin infill line
G1 X132.236 Y111.024 Z0.1 E62.83171 F3600
G0 X132.236 Y110.458 Z0.1 F7200; Moving to skin infill line
G1 X110.428 Y88.65 Z0.1 E63.85748 F3600
G0 X110.994 Y88.65 Z0.1 F7200; Moving to skin infill line
G1 X132.236 Y109.892 Z0.1 E64.85665 F3600
G0 X132.236 Y109.326 Z0.1 F7200; Moving to skin infill line
G1 X111.559 Y88.65 Z0.1 E65.82921 F3600
G0 X112.125 Y88.65 Z0.1 F7200; Moving to skin infill line
G1 X132.236 Y108.761 Z0.1 E66.77516 F3600
G0 X132.236 Y108.195 Z0.1 F7200; Moving to skin infill line
G1 X112.691 Y88.65 Z0.1 E67.6945 F3600
G0 X113.256 Y88.65 Z0.1 F7200; Moving to skin infill line
G1 X132.236 Y107.629 Z0.1 E68.58724 F3600
G0 X132.236 Y107.064 Z0.1 F7200; Moving to skin infill line
G1 X113.822 Y88.65 Z0.1 E69.45336 F3600
G0 X114.388 Y88.65 Z0.1 F7200; Moving to skin infill line
G1 X132.236 Y106.498 Z0.1 E70.29288 F3600
G0 X132.236 Y105.932 Z0.1 F7200; Moving to skin infill line
G1 X114.953 Y88.65 Z0.1 E71.10579 F3600
G0 X115.519 Y88.65 Z0.1 F7200; Moving to skin infill line
G1 X132.236 Y105.367 Z0.1 E71.8921 F3600
G0 X132.236 Y104.801 Z0.1 F7200; Moving to skin infill line
G1 X116.085 Y88.65 Z0.1 E72.65179 F3600
G0 X116.65 Y88.65 Z0.1 F7200; Moving to skin infill line
G1 X132.236 Y104.235 Z0.1 E73.38488 F3600
G0 X132.236 Y103.67 Z0.1 F7200; Moving to skin infill line
G1 X117.216 Y88.65 Z0.1 E74.09135 F3600
G0 X117.782 Y88.65 Z0.1 F7200; Moving to skin infill line
G1 X132.236 Y103.104 Z0.1 E74.77122 F3600
G0 X132.236 Y102.538 Z0.1 F7200; Moving to skin infill line
G1 X118.347 Y88.65 Z0.1 E75.42449 F3600
G0 X118.913 Y88.65 Z0.1 F7200; Moving to skin infill line
G1 X132.236 Y101.973 Z0.1 E76.05114 F3600
G0 X132.236 Y101.407 Z0.1 F7200; Moving to skin infill line
G1 X119.479 Y88.65 Z0.1 E76.65118 F3600
G0 X120.045 Y88.65 Z0.1 F7200; Moving to skin infill line
G1 X132.236 Y100.841 Z0.1 E77.22462 F3600
G0 X132.236 Y100.276 Z0.1 F7200; Moving to skin infill line
G1 X120.61 Y88.65 Z0.1 E77.77145 F3600
G0 X121.176 Y88.65 Z0.1 F7200; Moving to skin infill line
G1 X132.236 Y99.71 Z0.1 E78.29167 F3600
G0 X132.236 Y99.144 Z0.1 F7200; Moving to skin infill line
G1 X121.742 Y88.65 Z0.1 E78.78529 F3600
G0 X122.307 Y88.65 Z0.1 F7200; Moving to skin infill line
G1 X132.236 Y98.578 Z0.1 E79.25229 F3600
G0 X132.236 Y98.013 Z0.1 F7200; Moving to skin infill line
G1 X122.873 Y88.65 Z0.1 E79.69269 F3600
G0 X123.439 Y88.65 Z0.1 F7200; Moving to skin infill line
G1 X132.236 Y97.447 Z0.1 E80.10648 F3600
G0 X132.236 Y96.881 Z0.1 F7200; Moving to skin infill line
G1 X124.004 Y88.65 Z0.1 E80.49366 F3600
G0 X124.57 Y88.65 Z0.1 F7200; Moving to skin infill line
G1 X132.236 Y96.316 Z0.1 E80.85423 F3600
G0 X132.236 Y95.75 Z0.1 F7200; Moving to skin infill line
G1 X125.136 Y88.65 Z0.1 E81.18819 F3600
G0 X125.701 Y88.65 Z0.1 F7200; Moving to skin infill line
G1 X132.236 Y95.184 Z0.1 E81.49555 F3600
G0 X132.236 Y94.619 Z0.1 F7200; Moving to skin infill line
G1 X126.267 Y88.65 Z0.1 E81.7763 F3600
G0 X126.833 Y88.65 Z0.1 F7200; Moving to skin infill line
G1 X132.236 Y94.053 Z0.1 E82.03044 F3600
G0 X132.236 Y93.487 Z0.1 F7200; Moving to skin infill line
G1 X127.398 Y88.65 Z0.1 E82.25797 F3600
G0 X127.964 Y88.65 Z0.1 F7200; Moving to skin infill line
G1 X132.236 Y92.922 Z0.1 E82.45889 F3600
G0 X132.236 Y92.356 Z0.1 F7200; Moving to skin infill line
G1 X128.53 Y88.65 Z0.1 E82.63321 F3600
G0 X129.096 Y88.65 Z0.1 F7200; Moving to skin infill line
G1 X132.236 Y91.79 Z0.1 E82.78092 F3600
G0 X132.236 Y91.225 Z0.1 F7200; Moving to skin infill line
G1 X129.661 Y88.65 Z0.1 E82.90202 F3600
G0 X130.227 Y88.65 Z0.1 F7200; Moving to skin infill line
G1 X132.236 Y90.659 Z0.1 E82.99651 F3600
G0 X132.236 Y90.093 Z0.1 F7200; Moving to skin infill line
G1 X130.793 Y88.65 Z0.1 E83.06439 F3600
G0 X131.358 Y88.65 Z0.1 F7200; Moving to skin infill line
G1 X132.236 Y89.528 Z0.1 E83.10567 F3600
G0 X132.236 Y88.962 Z0.1 F7200; Moving to skin infill line
G1 X131.924 Y88.65 Z0.1 E83.12033 F3600
G0 X92.764 Y89.088 Z0.1 F7200; Moving to skin infill line
G1 X132.236 Y128.56 Z0.1 E84.97695 F3600
G0 X132.236 Y129.125 Z0.1 F7200; Moving to skin infill line
G1 X92.764 Y89.654 Z0.1 E86.83357 F3600
G0 X92.764 Y90.22 Z0.1 F7200; Moving to skin infill line
G1 X132.236 Y129.691 Z0.1 E88.69019 F3600
G0 X132.236 Y130.257 Z0.1 F7200; Moving to skin infill line
G1 X92.764 Y90.785 Z0.1 E90.54681 F3600
G0 X92.764 Y91.351 Z0.1 F7200; Moving to skin infill line
G1 X132.236 Y130.823 Z0.1 E92.40343 F3600
G0 X132.236 Y131.388 Z0.1 F7200; Moving to skin infill line
G1 X92.764 Y91.917 Z0.1 E94.26005 F3600
G0 X92.764 Y92.482 Z0.1 F7200; Moving to skin infill line
G1 X132.236 Y131.954 Z0.1 E96.11667 F3600
G0 X132.236 Y132.52 Z0.1 F7200; Moving to skin infill line
G1 X92.764 Y93.048 Z0.1 E97.97329 F3600
G0 X92.764 Y93.614 Z0.1 F7200; Moving to skin infill line
G1 X132.236 Y133.085 Z0.1 E99.82991 F3600
G0 X132.236 Y133.651 Z0.1 F7200; Moving to skin infill line
G1 X92.764 Y94.179 Z0.1 E101.68653 F3600
G0 X92.764 Y94.745 Z0.1 F7200; Moving to skin infill line
G1 X132.236 Y134.217 Z0.1 E103.54315 F3600
G0 X132.236 Y134.782 Z0.1 F7200; Moving to skin infill line
G1 X92.764 Y95.311 Z0.1 E105.39976 F3600
G0 X92.764 Y95.877 Z0.1 F7200; Moving to skin infill line
G1 X132.236 Y135.348 Z0.1 E107.25638 F3600
G0 X132.236 Y135.914 Z0.1 F7200; Moving to skin infill line
G1 X92.764 Y96.442 Z0.1 E109.113 F3600
G0 X92.764 Y97.008 Z0.1 F7200; Moving to skin infill line
G1 X132.106 Y136.35 Z0.1 E110.96354 F3600
G0 X131.541 Y136.35 Z0.1 F7200; Moving to skin infill line
G1 X92.764 Y97.574 Z0.1 E112.78746 F3600
G0 X92.764 Y98.139 Z0.1 F7200; Moving to skin infill line
G1 X130.975 Y136.35 Z0.1 E114.58478 F3600
G0 X130.409 Y136.35 Z0.1 F7200; Moving to skin infill line
G1 X92.764 Y98.705 Z0.1 E116.35549 F3600
G0 X92.764 Y99.271 Z0.1 F7200; Moving to skin infill line
G1 X129.844 Y136.35 Z0.1 E118.09959 F3600
G0 X129.278 Y136.35 Z0.1 F7200; Moving to skin infill line
G1 X92.764 Y99.836 Z0.1 E119.81708 F3600
G0 X92.764 Y100.402 Z0.1 F7200; Moving to skin infill line
G1 X128.712 Y136.35 Z0.1 E121.50796 F3600
G0 X128.147 Y136.35 Z0.1 F7200; Moving to skin infill line
G1 X92.764 Y100.968 Z0.1 E123.17224 F3600
G0 X92.764 Y101.533 Z0.1 F7200; Moving to skin infill line
G1 X127.581 Y136.35 Z0.1 E124.80991 F3600
G0 X127.015 Y136.35 Z0.1 F7200; Moving to skin infill line
G1 X92.764 Y102.099 Z0.1 E126.42097 F3600
G0 X92.764 Y102.665 Z0.1 F7200; Moving to skin infill line
G1 X126.45 Y136.35 Z0.1 E128.00542 F3600
G0 X125.884 Y136.35 Z0.1 F7200; Moving to skin infill line
G1 X92.764 Y103.23 Z0.1 E129.56326 F3600
G0 X92.764 Y103.796 Z0.1 F7200; Moving to skin infill line
G1 X125.318 Y136.35 Z0.1 E131.0945 F3600
G0 X124.752 Y136.35 Z0.1 F7200; Moving to skin infill line
G1 X92.764 Y104.362 Z0.1 E132.59912 F3600
G0 X92.764 Y104.927 Z0.1 F7200; Moving to skin infill line
G1 X124.187 Y136.35 Z0.1 E134.07714 F3600
G0 X123.621 Y136.35 Z0.1 F7200; Moving to skin infill line
G1 X92.764 Y105.493 Z0.1 E135.52855 F3600
G0 X92.764 Y106.059 Z0.1 F7200; Moving to skin infill line
G1 X123.055 Y136.35 Z0.1 E136.95336 F3600
G0 X122.49 Y136.35 Z0.1 F7200; Moving to skin infill line
G1 X92.764 Y106.625 Z0.1 E138.35155 F3600
G0 X92.764 Y107.19 Z0.1 F7200; Moving to skin infill line
G1 X121.924 Y136.35 Z0.1 E139.72314 F3600
G0 X121.358 Y136.35 Z0.1 F7200; Moving to skin infill line
G1 X92.764 Y107.756 Z0.1 E141.06812 F3600
G0 X92.764 Y108.322 Z0.1 F7200; Moving to skin infill line
G1 X120.793 Y136.35 Z0.1 E142.38649 F3600
G0 X120.227 Y136.35 Z0.1 F7200; Moving to skin infill line
G1 X92.764 Y108.887 Z0.1 E143.67825 F3600
G0 X92.764 Y109.453 Z0.1 F7200; Moving to skin infill line
G1 X119.661 Y136.35 Z0.1 E144.9434 F3600
G0 X119.096 Y136.35 Z0.1 F7200; Moving to skin infill line
G1 X92.764 Y110.019 Z0.1 E146.18195 F3600
G0 X92.764 Y110.584 Z0.1 F7200; Moving to skin infill line
G1 X118.53 Y136.35 Z0.1 E147.39389 F3600
G0 X117.964 Y136.35 Z0.1 F7200; Moving to skin infill line
G1 X92.764 Y111.15 Z0.1 E148.57922 F3600
G0 X92.764 Y111.716 Z0.1 F7200; Moving to skin infill line
G1 X117.399 Y136.35 Z0.1 E149.73794 F3600
G0 X116.833 Y136.35 Z0.1 F7200; Moving to skin infill line
G1 X92.764 Y112.281 Z0.1 E150.87005 F3600
G0 X92.764 Y112.847 Z0.1 F7200; Moving to skin infill line
G1 X116.267 Y136.35 Z0.1 E151.97556 F3600
G0 X115.701 Y136.35 Z0.1 F7200; Moving to skin infill line
G1 X92.764 Y113.413 Z0.1 E153.05446 F3600
G0 X92.764 Y113.978 Z0.1 F7200; Moving to skin infill line
G1 X115.136 Y136.35 Z0.1 E154.10675 F3600
G0 X114.57 Y136.35 Z0.1 F7200; Moving to skin infill line
G1 X92.764 Y114.544 Z0.1 E155.13243 F3600
G0 X92.764 Y115.11 Z0.1 F7200; Moving to skin infill line
G1 X114.004 Y136.35 Z0.1 E156.1315 F3600
G0 X113.439 Y136.35 Z0.1 F7200; Moving to skin infill line
G1 X92.764 Y115.675 Z0.1 E157.10397 F3600
G0 X92.764 Y116.241 Z0.1 F7200; Moving to skin infill line
G1 X112.873 Y136.35 Z0.1 E158.04982 F3600
G0 X112.307 Y136.35 Z0.1 F7200; Moving to skin infill line
G1 X92.764 Y116.807 Z0.1 E158.96907 F3600
G0 X92.764 Y117.373 Z0.1 F7200; Moving to skin infill line
G1 X111.742 Y136.35 Z0.1 E159.86171 F3600
G0 X111.176 Y136.35 Z0.1 F7200; Moving to skin infill line
G1 X92.764 Y117.938 Z0.1 E160.72775 F3600
G0 X92.764 Y118.504 Z0.1 F7200; Moving to skin infill line
G1 X110.61 Y136.35 Z0.1 E161.56717 F3600
G0 X110.045 Y136.35 Z0.1 F7200; Moving to skin infill line
G1 X92.764 Y119.07 Z0.1 E162.37999 F3600
G0 X92.764 Y119.635 Z0.1 F7200; Moving to skin infill line
G1 X109.479 Y136.35 Z0.1 E163.16619 F3600
G0 X108.913 Y136.35 Z0.1 F7200; Moving to skin infill line
G1 X92.764 Y120.201 Z0.1 E163.9258 F3600
G0 X92.764 Y120.767 Z0.1 F7200; Moving to skin infill line
G1 X108.348 Y136.35 Z0.1 E164.65879 F3600
G0 X107.782 Y136.35 Z0.1 F7200; Moving to skin infill line
G1 X92.764 Y121.332 Z0.1 E165.36517 F3600
G0 X92.764 Y121.898 Z0.1 F7200; Moving to skin infill line
G1 X107.216 Y136.35 Z0.1 E166.04495 F3600
G0 X106.651 Y136.35 Z0.1 F7200; Moving to skin infill line
G1 X92.764 Y122.464 Z0.1 E166.69812 F3600
G0 X92.764 Y123.029 Z0.1 F7200; Moving to skin infill line
G1 X106.085 Y136.35 Z0.1 E167.32467 F3600
G0 X105.519 Y136.35 Z0.1 F7200; Moving to skin infill line
G1 X92.764 Y123.595 Z0.1 E167.92463 F3600
G0 X92.764 Y124.161 Z0.1 F7200; Moving to skin infill line
G1 X104.953 Y136.35 Z0.1 E168.49797 F3600
G0 X104.388 Y136.35 Z0.1 F7200; Moving to skin infill line
G1 X92.764 Y124.726 Z0.1 E169.04471 F3600
G0 X92.764 Y125.292 Z0.1 F7200; Moving to skin infill line
G1 X103.822 Y136.35 Z0.1 E169.56483 F3600
G0 X103.256 Y136.35 Z0.1 F7200; Moving to skin infill line
G1 X92.764 Y125.858 Z0.1 E170.05835 F3600
G0 X92.764 Y126.424 Z0.1 F7200; Moving to skin infill line
G1 X102.691 Y136.35 Z0.1 E170.52526 F3600
G0 X102.125 Y136.35 Z0.1 F7200; Moving to skin infill line
G1 X92.764 Y126.989 Z0.1 E170.96557 F3600
G0 X92.764 Y127.555 Z0.1 F7200; Moving to skin infill line
G1 X101.559 Y136.35 Z0.1 E171.37926 F3600
G0 X100.994 Y136.35 Z0.1 F7200; Moving to skin infill line
